X: 96
T:Colonel Rodney
R:Reel
Z:Added by Alf Warnock
M:4/4
L:1/8
K:A
B|:cA~A2 eAce|eaga fedc|dB~B2 fBde|f=f^fg afed|
cAA2 eAce|eaga fedc|defg agaf|[1 (3efg ae cAAB:|[2 (3efg ae cAAf|
|:e2ce Aece|aAgA fAeA|f2df Bfdf|bBaB gBfB|
e2ce aece|gaga fe.dc|defg agaf|[1 efae cAAf:|[2 efae cAA|]

